wechat.svg

<svg viewBox="0 0 24 24" xmlns="http://www.w3.org/2000/svg"><path d="M16.245 8.16799C16.518 8.16799 16.791 8.1932 17.0625 8.21703C16.332 4.82696 12.6675 2.29413 8.49301 2.29413C3.82499 2.31051 0 5.46546 0 9.47161C0 11.7812 1.27503 13.6861 3.39299 15.1609L2.5381 17.6908L5.51097 16.2175C6.57603 16.4259 7.431 16.6342 8.48251 16.6342C8.75549 16.6342 9.01506 16.6223 9.27449 16.5984C9.1059 16.0231 9.01857 15.4271 9.01504 14.8276C9.02707 11.1547 12.21 8.16948 16.2465 8.16948L16.2451 8.16799L16.245 8.16799ZM11.676 5.8851C12.321 5.8851 12.741 6.30176 12.741 6.94165C12.741 7.56672 12.321 7.9983 11.676 7.9983C11.0445 7.9983 10.401 7.58014 10.401 6.94162C10.401 6.30176 11.0445 5.8851 11.676 5.8851ZM5.73146 7.9983C5.10153 7.9983 4.45656 7.58014 4.45656 6.94162C4.45656 6.30176 5.10153 5.8851 5.73146 5.8851C6.36303 5.8851 6.79652 6.30176 6.79652 6.94165C6.79652 7.56672 6.37653 7.9983 5.73146 7.9983ZM24 14.7397C24 11.3735 20.607 8.62188 16.7789 8.62188C12.7424 8.62188 9.55946 11.3735 9.55946 14.7397C9.55946 18.1179 12.7424 20.8591 16.7789 20.8591C17.622 20.8591 18.4769 20.6507 19.3305 20.4409L21.6584 21.7059L21.015 19.6045C22.725 18.3158 24 16.6312 24 14.7397ZM14.439 13.6831C14.019 13.6831 13.584 13.2664 13.584 12.8349C13.584 12.4182 14.019 11.9866 14.439 11.9866C15.0839 11.9866 15.504 12.4048 15.504 12.8349C15.504 13.2664 15.0839 13.6831 14.439 13.6831L14.439 13.6831ZM19.1085 13.6831C18.687 13.6831 18.2654 13.2664 18.2654 12.8349C18.2654 12.4182 18.6855 11.9866 19.1085 11.9866C19.752 11.9866 20.1734 12.4048 20.1734 12.8349C20.1734 13.2664 19.752 13.6831 19.1085 13.6831L19.1085 13.6831Z" fill="#09bb07"/></svg>

<svg viewBox="0 0 24 24" xmlns="http://www.w3.org/2000/svg"><path d="M16.245 8.168c.273 0 .546.025.817.049-.73-3.39-4.395-5.923-8.569-5.923C3.825 2.311 0 5.465 0 9.472c0 2.31 1.275 4.214 3.393 5.689l-.855 2.53 2.973-1.473c1.065.208 1.92.416 2.972.416.272 0 .532-.012.791-.036a6.431 6.431 0 0 1-.259-1.77c.012-3.673 3.195-6.659 7.232-6.659l-.002-.001Zm-4.569-2.283c.645 0 1.065.417 1.065 1.057 0 .625-.42 1.056-1.065 1.056-.632 0-1.275-.418-1.275-1.056 0-.64.643-1.057 1.275-1.057ZM5.731 7.998c-.63 0-1.274-.418-1.274-1.056 0-.64.645-1.057 1.274-1.057.632 0 1.066.417 1.066 1.057 0 .625-.42 1.056-1.066 1.056ZM24 14.74c0-3.367-3.393-6.118-7.221-6.118-4.037 0-7.22 2.752-7.22 6.118 0 3.378 3.183 6.12 7.22 6.12.843 0 1.698-.21 2.552-.42l2.327 1.266-.643-2.101C22.725 18.315 24 16.63 24 14.74Zm-9.561-1.057c-.42 0-.855-.417-.855-.848 0-.417.435-.848.855-.848.645 0 1.065.418 1.065.848 0 .431-.42.848-1.065.848Zm4.67 0c-.422 0-.844-.417-.844-.848 0-.417.42-.848.843-.848.644 0 1.065.418 1.065.848 0 .431-.421.848-1.064.848Z" fill="#09bb07"/></svg>
